2/parathreads/2113/assets/logo.svg

<svg width="466" height="478" viewBox="0 0 466 478" fill="none" xmlns="http://www.w3.org/2000/svg">
<path fill-rule="evenodd" clip-rule="evenodd" d="M371.599 158.093L318.76 128.024L245.553 170.586L245.61 86.3771L192.771 56.3079L139.922 87.0341L139.866 171.243L139.846 210.584L139.98 247.487L140.185 267.113L139.846 315.203L139.835 353.63L139.84 397.896L192.646 427.908L245.495 397.181L245.489 352.915L318.698 394.528L319.223 394.222L371.547 363.801L371.591 303.063L298.382 261.451L371.589 218.888L371.599 158.093ZM232.252 94.1434L232.195 178.352L199.413 197.412L199.507 75.5458L232.252 94.1434ZM153.268 94.6852L186.051 75.6254L185.992 273.671L153.21 292.731L153.268 94.6852ZM139.835 353.63L139.852 300.497L139.847 338.212L139.835 353.63ZM153.21 292.731L185.992 273.671L185.999 363.315L153.217 382.375L153.21 292.731ZM232.182 389.588L192.691 412.548L159.913 393.892L199.404 370.932L199.404 265.495L232.169 282.495L232.182 389.588ZM318.686 379.202L245.477 337.589L245.481 299.874L351.468 360.142L318.686 379.202ZM358.233 310.83L358.195 348.487L252.208 288.219L284.99 269.159L358.233 310.83ZM232.169 282.495L199.404 265.495L318.757 196.482L351.535 215.137L232.169 282.495ZM318.802 181.122L318.277 181.428L185.997 257.495L186.009 218.495L318.865 143.373L358.3 165.825L358.237 203.575L318.802 181.122Z" fill="#151515"/>
</svg>

<?xml version="1.0" encoding="utf-8"?>
<!-- Generator: Adobe Illustrator 23.0.1, SVG Export Plug-In . SVG Version: 6.00 Build 0)  -->
<svg version="1.1" id="Layer_1" xmlns="http://www.w3.org/2000/svg" xmlns:xlink="http://www.w3.org/1999/xlink" x="0px" y="0px"
	 viewBox="0 0 466 478" style="enable-background:new 0 0 466 478;" xml:space="preserve">
<style type="text/css">
	.st0{fill:#FFFFFF;}
	.st1{fill-rule:evenodd;clip-rule:evenodd;fill:#151515;}
</style>
<rect class="st0" width="466" height="478"/>
<path class="st1" d="M371.6,158.1L318.8,128l-73.2,42.6l0.1-84.2l-52.8-30.1L139.9,87l-0.1,84.2l0,39.3l0.1,36.9l0.2,19.6l-0.3,48.1
	l0,38.4l0,44.3l52.8,30l52.8-30.7l0-44.3l73.2,41.6l0.5-0.3l52.3-30.4l0-60.7l-73.2-41.6l73.2-42.6L371.6,158.1z M232.3,94.1
	l-0.1,84.2l-32.8,19.1l0.1-121.9L232.3,94.1z M153.3,94.7l32.8-19.1l-0.1,198l-32.8,19.1L153.3,94.7z M139.8,353.6l0-53.1l0,37.7
	L139.8,353.6z M153.2,292.7l32.8-19.1l0,89.6l-32.8,19.1L153.2,292.7z M232.2,389.6l-39.5,23l-32.8-18.7l39.5-23V265.5l32.8,17
	L232.2,389.6z M318.7,379.2l-73.2-41.6l0-37.7l106,60.3L318.7,379.2z M358.2,310.8l0,37.7l-106-60.3l32.8-19.1L358.2,310.8z
	 M232.2,282.5l-32.8-17l119.4-69l32.8,18.7L232.2,282.5z M318.8,181.1l-0.5,0.3L186,257.5l0-39l132.9-75.1l39.4,22.5l-0.1,37.8
	L318.8,181.1z"/>
</svg>
